X:1
T:[ID 4-51r]
T:[ID 4-51r]
T:Bezeichnung standardisiert: Menuet [mit Trio] Menuet Con Trio In dieser Quelle auch als: Menuetto
T:Urheber unbekannt Erstbeleg: 1767 (Datum in der schriftlichen Quelle) Datum in der hier transkribierten schriftlichen Quelle: 1776 - 1791
C:Urheber unbekannt
C:Erstbeleg: 1767 (Datum in der schriftlichen Quelle)
C:Datum in der hier transkribierten schriftlichen Quelle: 1776 - 1791
L:1/8
M:3/4
K:D
V:1 treble 
V:1
 A2 | (df)(df)(df) | g4 ec | (df)(df)(df) | e2 A2 A2 | (df)(df)(df) | g4 ec | defgec | d4 :: fg | %10
 a4 ba | (ag)(gf) f2 | a2 a2 ba | (ag)(gf) f2 | (df)(df)(df) | g4 ec | defgec | d4 :| %18
[M:3/4]"^Trio" !fermata!d4 e2 | f3 g a2 | f3 g a2 | ag f2 e2 | d4 e2 | f3 g a2 | a2 (ag)(gf) | %25
 f2 e2 z2 :: f2 (fe)(ed) | d4 z2 | g2 (gf)(fe) | e4 z2 | a2 a2 a2 | b3 a f2 | fg f2 ec | d6 :| %34

